img/ostrovok-logo.svg

<svg width="158" height="20" viewBox="0 0 158 20" fill="none" xmlns="http://www.w3.org/2000/svg">
<path d="M41.9558 3.11015V1.07991C41.9558 0.604752 41.6065 0.345572 41.2136 0.345572H30.4736C29.9934 0.345572 29.7314 0.734341 29.7314 1.12311V3.15335C29.7314 3.54212 30.1243 3.88769 30.5173 3.88769C30.8229 3.88769 33.7043 3.88769 33.7043 3.88769C33.7043 3.88769 33.7043 15.1188 33.7043 15.5508C33.7043 15.9827 34.0099 16.2851 34.4465 16.2851H37.328C37.7646 16.2851 38.0702 15.9827 38.0702 15.5508C38.0702 15.2052 38.0702 3.84449 38.0702 3.84449C38.0702 3.84449 40.9516 3.84449 41.2573 3.84449C41.6065 3.84449 41.9558 3.54212 41.9558 3.11015ZM85.265 15.7667C85.3523 15.5508 89.2379 3.7581 90.1984 0.907127C90.2857 0.561555 90.0674 0.302376 89.7182 0.302376H86.0508C85.6143 0.302376 85.396 0.604752 85.3086 0.863931C85.2213 1.12311 82.5145 10.7127 82.5145 10.7127C82.5145 10.7127 79.8077 1.07991 79.7204 0.820734C79.6331 0.561555 79.4148 0.302376 78.9782 0.302376H75.3109C74.9616 0.302376 74.7433 0.561555 74.8743 0.950324C75.0489 1.46868 79.6767 15.4644 79.764 15.7667C79.895 16.1123 80.2006 16.2851 80.4626 16.2851H84.5228C84.9594 16.2851 85.1777 16.0259 85.265 15.7667ZM17.8563 15.6803C18.5112 15.9395 19.2097 16.1987 19.7336 16.2851C20.4758 16.4147 21.349 16.5011 22.4405 16.5011C23.7502 16.5011 24.8417 16.2851 25.8022 15.8531C26.7626 15.4212 27.5048 14.8164 28.0287 14.0389C28.5526 13.2613 28.8146 12.3974 28.8146 11.4039C28.8146 10.324 28.5526 9.41685 27.9851 8.7257C27.4612 7.99136 26.457 7.34341 25.06 6.73866C23.6192 6.09071 22.7024 5.61555 22.3968 5.39957C22.0475 5.14039 21.9166 4.88121 21.9166 4.53564C21.9166 4.23326 22.0475 4.01728 22.3095 3.8013C22.5714 3.58531 22.9644 3.49892 23.5319 3.49892C24.4487 3.49892 25.5402 3.7581 26.719 4.23326C27.1119 4.40605 27.5485 4.27646 27.7231 3.8013C27.9851 3.11015 28.378 2.11663 28.509 1.85745C28.6836 1.38229 28.4217 0.99352 28.0724 0.863931C26.588 0.302376 25.1036 0 23.6629 0C21.7419 0 20.2575 0.431966 19.1661 1.2527C18.0746 2.07343 17.5507 3.23974 17.5507 4.70842C17.5507 5.48596 17.6817 6.17711 17.9436 6.78186C18.2056 7.34341 18.5985 7.86177 19.1224 8.33693C19.6463 8.7689 20.4322 9.24406 21.5236 9.71922C22.7024 10.2376 23.4009 10.5832 23.6629 10.7559C23.9248 10.9287 24.1431 11.1015 24.2305 11.2743C24.3614 11.4471 24.4051 11.6199 24.4051 11.8359C24.4051 12.1814 24.2741 12.4838 23.9685 12.6998C23.6629 12.9158 23.1826 13.0454 22.5278 13.0454C21.7856 13.0454 20.9561 12.8726 20.0392 12.6566C19.7773 12.5702 19.4717 12.4838 19.2097 12.3974C18.9041 12.2678 18.4239 12.311 18.2492 12.8294C18.0309 13.3909 17.6817 14.2117 17.4634 14.7732C17.2451 15.2052 17.5507 15.5508 17.8563 15.6803ZM8.33877 0C3.71097 0 0 3.7149 0 8.25054C0 12.8294 3.75463 16.5011 8.33877 16.5011C12.9666 16.5011 16.6775 12.7862 16.6775 8.25054C16.7212 3.7149 12.9666 0 8.33877 0ZM8.33877 12.2246C6.11219 12.2246 4.32219 10.4536 4.32219 8.25054C4.32219 6.04752 6.11219 4.27646 8.33877 4.27646C10.5654 4.27646 12.3553 6.04752 12.3553 8.25054C12.3553 10.4536 10.5654 12.2246 8.33877 12.2246ZM47.7187 10.4536H48.8538C48.8538 10.4536 52.5648 15.7667 52.6958 15.9395C52.8267 16.1555 53.0014 16.2419 53.307 16.2419H56.4067C56.887 16.2419 56.9743 15.7667 56.7997 15.5076C56.625 15.2484 52.8704 9.9784 52.8704 9.9784C55.5772 9.37365 56.625 7.5162 56.625 5.18359C56.625 2.03024 54.5294 0.302376 50.1636 0.302376C50.1636 0.302376 44.7499 0.302376 44.226 0.302376C43.7894 0.302376 43.4838 0.647948 43.4838 1.03672C43.4838 1.33909 43.4838 15.5508 43.4838 15.5508C43.4838 15.9395 43.8331 16.2851 44.226 16.2851C44.226 16.2851 46.5399 16.2851 46.9765 16.2851C47.3694 16.2851 47.7187 15.9827 47.7187 15.594C47.7187 15.162 47.7187 10.4536 47.7187 10.4536ZM47.7187 3.58531H50.0763C51.5607 3.58531 52.4338 4.31965 52.4338 5.35637C52.4338 6.69546 51.4297 7.34341 49.9016 7.34341H47.7187V3.58531ZM142.851 15.5508C142.676 15.2916 138.921 10.0216 138.921 10.0216C141.628 9.41685 142.676 7.5594 142.676 5.22678C142.676 2.07343 140.58 0.345572 136.214 0.345572C136.214 0.345572 130.801 0.345572 130.277 0.345572C129.84 0.345572 129.535 0.691145 129.535 1.07991C129.535 1.38229 129.535 15.594 129.535 15.594C129.535 15.9827 129.884 16.3283 130.277 16.3283C130.277 16.3283 132.591 16.3283 133.027 16.3283C133.42 16.3283 133.77 16.0259 133.77 15.6371C133.77 15.2052 133.77 10.54 133.77 10.54H134.905C134.905 10.54 138.616 15.8531 138.747 16.0259C138.878 16.2419 139.052 16.3283 139.358 16.3283H142.458C142.938 16.2851 143.025 15.7667 142.851 15.5508ZM135.952 7.30022H133.77V3.54212H136.127C137.611 3.54212 138.485 4.27646 138.485 5.31318C138.485 6.65227 137.481 7.30022 135.952 7.30022ZM128.269 14.4276C128.269 13.2613 127.308 12.311 126.129 12.311C124.951 12.311 123.99 13.2613 123.99 14.4276C123.99 15.594 124.951 16.5443 126.129 16.5443C127.352 16.5443 128.269 15.594 128.269 14.4276ZM157.171 0.302376H154.289C153.852 0.302376 153.547 0.691145 153.547 1.03672C153.547 1.42549 153.547 9.63283 153.547 9.63283C153.547 10.7559 153.329 11.5767 152.892 12.095C152.455 12.6134 151.844 12.8726 151.015 12.8726C150.185 12.8726 149.53 12.6134 149.137 12.095C148.701 11.5767 148.482 10.7559 148.482 9.63283C148.482 9.63283 148.482 1.42549 148.482 1.03672C148.482 0.647948 148.177 0.302376 147.74 0.302376H144.859C144.379 0.302376 144.117 0.691145 144.117 1.07991C144.117 1.42549 144.117 9.9784 144.117 9.9784C144.117 12.0518 144.728 13.6933 145.907 14.7732C147.085 15.8963 148.832 16.4579 151.058 16.4579C153.241 16.4579 155.031 15.8963 156.21 14.7732C157.389 13.6501 158 12.0518 158 9.9784C158 9.9784 158 1.42549 158 1.07991C157.956 0.691145 157.651 0.302376 157.171 0.302376ZM110.369 16.2851H113.25C113.687 16.2851 113.992 15.9827 113.992 15.594C113.992 15.2052 113.992 10.9719 113.992 10.9719L115.302 10.1944C115.302 10.1944 118.183 15.7235 118.314 15.9395C118.445 16.1555 118.664 16.2851 118.969 16.2851H122.637C123.073 16.2851 123.161 15.8099 123.03 15.594C122.899 15.378 118.402 7.473 118.402 7.473C118.402 7.473 122.899 1.16631 123.03 0.99352C123.161 0.820734 123.073 0.302376 122.637 0.302376H119.144C118.926 0.302376 118.707 0.431965 118.533 0.604752C118.402 0.820734 115.302 5.26998 115.302 5.26998L113.992 6.04752V1.07991C113.992 0.691145 113.643 0.345572 113.25 0.345572C113.25 0.345572 110.762 0.345572 110.369 0.345572C109.932 0.345572 109.626 0.647948 109.626 1.12311V15.594C109.583 15.9827 109.932 16.2851 110.369 16.2851ZM59.4628 11.6199C60.467 11.4903 62.4316 11.1879 62.7372 11.1447C63.1738 11.0583 63.2175 10.6264 63.0865 10.4104C62.6936 9.80562 62.4316 9.02808 62.4316 8.25054C62.4316 6.04752 64.2216 4.27646 66.4482 4.27646C68.6748 4.27646 70.4648 6.04752 70.4648 8.25054C70.4648 10.2808 68.9367 11.9222 66.9721 12.1814C66.9721 12.1814 61.1219 13.0454 60.6416 13.1317C60.205 13.2181 60.1177 13.6933 60.4233 13.9957C61.9514 15.5508 66.4045 20 66.4045 20C66.4045 20 70.8577 15.5508 72.3857 13.9957C73.8701 12.527 74.7433 10.4968 74.7433 8.25054C74.7433 3.67171 70.9887 0 66.4045 0C61.7767 0 58.0658 3.7149 58.0658 8.25054C58.0658 9.24406 58.2404 10.2376 58.5897 11.1447C58.7643 11.4471 59.0263 11.7063 59.4628 11.6199ZM98.9738 0C94.346 0 90.635 3.7149 90.635 8.25054C90.635 12.8294 94.3896 16.5011 98.9738 16.5011C103.602 16.5011 107.313 12.7862 107.313 8.25054C107.356 3.7149 103.602 0 98.9738 0ZM98.9738 12.2246C96.7472 12.2246 94.9572 10.4536 94.9572 8.25054C94.9572 6.04752 96.7472 4.27646 98.9738 4.27646C101.2 4.27646 102.99 6.04752 102.99 8.25054C102.99 10.4536 101.2 12.2246 98.9738 12.2246Z" fill="white"/>
</svg>

<svg width="158" height="20" fill="none" xmlns="http://www.w3.org/2000/svg"><path d="M41.956 3.11V1.08c0-.475-.35-.734-.742-.734h-10.74c-.48 0-.743.388-.743.777v2.03c0 .39.393.735.786.735h3.187V15.55c0 .432.306.734.742.734h2.882c.437 0 .742-.302.742-.734V3.844h3.187c.35 0 .699-.302.699-.734zm43.309 12.657c.087-.216 3.973-12.009 4.933-14.86.088-.345-.13-.605-.48-.605h-3.667c-.437 0-.655.303-.742.562-.088.26-2.794 9.849-2.794 9.849S79.808 1.08 79.72.82c-.087-.26-.305-.519-.742-.519h-3.667c-.35 0-.568.26-.437.648.175.519 4.803 14.514 4.89 14.817.131.345.437.518.699.518h4.06c.436 0 .655-.26.742-.518zm-67.409-.087c.655.26 1.354.519 1.878.605.742.13 1.615.216 2.706.216 1.31 0 2.402-.216 3.362-.648.96-.432 1.703-1.037 2.227-1.814.524-.778.786-1.642.786-2.635 0-1.08-.262-1.987-.83-2.678-.524-.735-1.528-1.383-2.925-1.987-1.44-.648-2.358-1.123-2.663-1.34-.35-.259-.48-.518-.48-.863 0-.303.13-.519.392-.735.262-.216.655-.302 1.223-.302.917 0 2.008.26 3.187.734.393.173.83.043 1.004-.432.262-.69.655-1.684.786-1.944a.748.748 0 0 0-.437-.993C26.588.302 25.104 0 23.662 0c-1.92 0-3.404.432-4.496 1.253-1.091.82-1.615 1.987-1.615 3.455 0 .778.13 1.47.393 2.074.262.561.655 1.08 1.178 1.555.524.432 1.31.907 2.402 1.382 1.178.519 1.877.864 2.139 1.037.262.173.48.345.567.518.131.173.175.346.175.562 0 .345-.13.648-.437.864-.305.216-.785.345-1.44.345-.742 0-1.572-.172-2.489-.388-.262-.087-.567-.173-.83-.26-.305-.13-.785-.086-.96.432-.218.562-.567 1.383-.786 1.944-.218.432.088.778.393.907zM8.34 0C3.71 0 0 3.715 0 8.25c0 4.58 3.755 8.251 8.339 8.251 4.628 0 8.338-3.715 8.338-8.25C16.721 3.715 12.967 0 8.34 0zm0 12.225c-2.227 0-4.017-1.771-4.017-3.974 0-2.203 1.79-3.975 4.017-3.975 2.226 0 4.016 1.772 4.016 3.975 0 2.203-1.79 3.974-4.016 3.974zm39.38-1.771h1.135s3.71 5.313 3.842 5.486c.13.216.305.302.611.302h3.1c.48 0 .567-.475.393-.734-.175-.26-3.93-5.53-3.93-5.53 2.707-.604 3.755-2.462 3.755-4.794 0-3.154-2.096-4.882-6.461-4.882h-5.938a.732.732 0 0 0-.742.735V15.55c0 .389.35.734.742.734h2.75c.393 0 .743-.302.743-.691v-5.14zm0-6.869h2.357c1.485 0 2.358.735 2.358 1.771 0 1.34-1.004 1.987-2.532 1.987h-2.183V3.585zm95.132 11.966c-.175-.26-3.93-5.53-3.93-5.53 2.707-.604 3.755-2.462 3.755-4.794 0-3.154-2.096-4.881-6.462-4.881h-5.937a.731.731 0 0 0-.742.734v14.514a.76.76 0 0 0 .742.734h2.75c.393 0 .743-.302.743-.69V10.54h1.135s3.711 5.313 3.842 5.486c.131.216.305.302.611.302h3.1c.48-.043.567-.561.393-.777zm-6.899-8.25h-2.182V3.541h2.357c1.484 0 2.358.734 2.358 1.771 0 1.34-1.004 1.987-2.533 1.987zm-7.683 7.127c0-1.167-.961-2.117-2.14-2.117-1.178 0-2.139.95-2.139 2.117 0 1.166.961 2.116 2.139 2.116 1.223 0 2.14-.95 2.14-2.116zM157.171.302h-2.882c-.437 0-.742.39-.742.735v8.596c0 1.123-.218 1.944-.655 2.462-.437.518-1.048.778-1.877.778-.83 0-1.485-.26-1.878-.778-.436-.518-.655-1.34-.655-2.462V1.037a.731.731 0 0 0-.742-.735h-2.881c-.48 0-.742.39-.742.778v8.898c0 2.074.611 3.715 1.79 4.795 1.178 1.123 2.925 1.685 5.151 1.685 2.183 0 3.973-.562 5.152-1.685 1.179-1.123 1.79-2.721 1.79-4.795V1.08c-.044-.389-.349-.778-.829-.778zm-46.802 15.983h2.881c.437 0 .742-.302.742-.691v-4.622l1.31-.778s2.881 5.53 3.012 5.745c.131.216.35.346.655.346h3.668c.436 0 .524-.475.393-.691a4238.2 4238.2 0 0 1-4.628-8.121s4.497-6.307 4.628-6.48c.131-.172.043-.69-.393-.69h-3.493c-.218 0-.437.129-.611.302-.131.216-3.231 4.665-3.231 4.665l-1.31.778V1.08a.76.76 0 0 0-.742-.734h-2.881c-.437 0-.743.302-.743.777v14.471c-.043.389.306.691.743.691zM59.463 11.62c1.004-.13 2.969-.432 3.274-.475a.491.491 0 0 0 .35-.735 4.063 4.063 0 0 1-.655-2.16c0-2.202 1.79-3.974 4.016-3.974 2.227 0 4.017 1.772 4.017 3.975 0 2.03-1.528 3.671-3.493 3.93 0 0-5.85.864-6.33.95-.437.087-.524.562-.219.865C61.951 15.55 66.404 20 66.404 20s4.454-4.45 5.982-6.004c1.484-1.469 2.357-3.5 2.357-5.745C74.743 3.67 70.99 0 66.405 0c-4.628 0-8.34 3.715-8.34 8.25 0 .994.175 1.988.525 2.895.174.302.436.561.873.475zM98.973 0c-4.627 0-8.338 3.715-8.338 8.25 0 4.58 3.755 8.251 8.339 8.251 4.628 0 8.339-3.715 8.339-8.25.043-4.536-3.711-8.251-8.34-8.251zm0 12.225c-2.226 0-4.016-1.771-4.016-3.974 0-2.203 1.79-3.975 4.017-3.975 2.226 0 4.016 1.772 4.016 3.975 0 2.203-1.79 3.974-4.016 3.974z" fill="#fff"/></svg>
